X: 73
T: Allah Emrin Tutalım
C: Zekâî Dede
O: Turkey
F: http://compmusic.upf.edu/node/140
N: ussak--ilahi--duyek--allah_emrin--zekai_dede
N: makam= ussak
N: form= ilahi
N: usul= duyek = 8/4
M: 8/4
L: 1/16
K: C _2/4B   
Q: 1/4=156
%%MIDI tuningsystem comma53
z4 G2 A2 A4 A3G  | A3G A2 B2 c2 d2 c2 BA  | \
w:  Al lah  em rin   |  tu *  ta *  lım    | 
d4 d2 d2 c3B A4  | 
w:  *  Rah me ti *  ne   | 
BA Bd c2 BA A4 c2 BA  | B4 G2 A2 A2 AG A4  | \
w:  ba *  *  *  ta *  *  lım    |  *  Bül bül  gi *  *  bi   | 
e2 fg e2 d2 dc de d2 cB  | 
w:  ö *  *  te *  lim    | 
d4 d2 d2 c3B A4  | B2 cd c2 d2 cB AG d4  | \
w:  *  Al lah_ Al *  lah   |  ke rîm  *  *  *  Al *  *  *  lah    | 
d4 B2 c2 B3A A4  | 
w:  *  Ra hîm_ Al *  lah   | 
B2 cd c2 d2 cB AG d4  | d4 B2 c2 B3A A4  | \
w:  a man  *  *  *  Al *  *  *  lah    |  *  di ye lim  *  yâ   | 
G2 A14  | z4 G2 A2 A4 A3G  | 
w:  hû    |  Al lah  em rin   | 
A3G A2 B2 c2 d2 c2 BA  | d4 d2 d2 c3B A4  | \
w:  tu *  ta *  lım    |  *  Rah me ti *  ne   | 
BA Bd c2 BA A4 c2 BA  | 
w:  ba *  *  *  ta *  *  lım    | 
B4 G2 A2 A2 AG A4  | e2 fg e2 d2 dc de d2 cB  | \
w:  *  Bül bül  gi *  *  bi   |  ö *  *  te *  lim    | 
d4 d2 d2 c3B A4  | 
w:  *  Al lah_ Al *  lah   | 
B2 cd c2 d2 cB AG d4  | d4 B2 c2 B3A A4  | \
w:  ke rîm  *  *  *  Al *  *  *  lah    |  *  Ra hîm_ Al *  lah   | 
B2 cd c2 d2 cB AG d4  | 
w:  a man  *  *  *  Al *  *  *  lah    | 
d4 B2 c2 B3A A4  | G2 A14  | |


